X:106
T:B106-  Dear Pickaninny
Q:1/4=120
L:1/4
M:3/4
K:C
ccc|cGc|(e/2f/2e/2f/2 e/2) f/2|ecd|\
e2f|gdg|(^f3/2 g/2) (a/2f/2)|g3::\
fff|faf|eee|ege|\
dec|BGe|cdB|c3:|]

